findly-builder/apps/searchassist/src/assets/icons/webhook.svg

<svg width="100" height="100" viewBox="0 0 100 100" fill="none" xmlns="http://www.w3.org/2000/svg">
<path d="M72.9166 77.0837C68.3333 77.0837 64.5833 73.3337 64.5833 68.7503C64.5833 64.167 68.3333 60.417 72.9166 60.417C77.4999 60.417 81.2499 64.167 81.2499 68.7503C81.2499 73.3337 77.4999 77.0837 72.9166 77.0837Z" fill="#2196F3"/>
<path d="M72.9167 89.5833C66.6667 89.5833 60.6251 86.6667 56.6668 81.875L63.1251 76.6667C65.4167 79.5833 69.1667 81.4583 72.9167 81.4583C79.7917 81.4583 85.4167 75.8333 85.4167 68.9583C85.4167 62.0833 79.7917 56.4583 72.9167 56.4583C70.8334 56.4583 68.7501 57.0833 66.8751 57.9167L63.3334 60L48.5417 33.3333L55.8334 29.375L66.8751 48.9583C68.9584 48.3333 71.0417 47.9167 73.1251 47.9167C84.5834 47.9167 93.9584 57.2917 93.9584 68.75C93.9584 80.2083 84.3751 89.5833 72.9167 89.5833Z" fill="#2196F3"/>
<path d="M29.1666 89.5837C17.7083 89.5837 8.33325 80.2087 8.33325 68.7503C8.33325 59.167 14.7916 51.042 23.9583 48.542L26.0416 56.667C20.6249 58.1253 16.6666 63.1253 16.6666 68.7503C16.6666 75.6253 22.2916 81.2503 29.1666 81.2503C36.0416 81.2503 41.6666 75.6253 41.6666 68.7503V64.5837H72.9166V72.917H49.5833C47.7083 82.5003 39.1666 89.5837 29.1666 89.5837Z" fill="#2196F3"/>
<path d="M29.1666 77.0837C24.5833 77.0837 20.8333 73.3337 20.8333 68.7503C20.8333 64.167 24.5833 60.417 29.1666 60.417C33.7499 60.417 37.4999 64.167 37.4999 68.7503C37.4999 73.3337 33.7499 77.0837 29.1666 77.0837Z" fill="#0D6EFD"/>
<path d="M52.0833 39.5837C47.5 39.5837 43.75 35.8337 43.75 31.2503C43.75 26.667 47.5 22.917 52.0833 22.917C56.6667 22.917 60.4167 26.667 60.4167 31.2503C60.4167 35.8337 56.6667 39.5837 52.0833 39.5837Z" fill="#2196F3"/>
<path d="M32.7083 70.8337L25.625 66.667L37.9167 46.4587C33.75 42.5003 31.25 37.0837 31.25 31.2503C31.25 19.792 40.625 10.417 52.0833 10.417C63.5417 10.417 72.9167 19.792 72.9167 31.2503C72.9167 33.1253 72.7083 34.792 72.2917 36.4587L64.1667 34.3753C64.375 33.3337 64.5833 32.292 64.5833 31.2503C64.5833 24.3753 58.9583 18.7503 52.0833 18.7503C45.2083 18.7503 39.5833 24.3753 39.5833 31.2503C39.5833 35.6253 41.875 39.5837 45.625 41.8753L49.1667 43.9587L32.7083 70.8337Z" fill="#0D6EFD"/>
</svg>

<svg width="100" height="100" fill="none" xmlns="http://www.w3.org/2000/svg"><path d="M72.917 77.084c-4.584 0-8.334-3.75-8.334-8.334 0-4.583 3.75-8.333 8.334-8.333 4.583 0 8.333 3.75 8.333 8.333 0 4.584-3.75 8.334-8.333 8.334Z" fill="#2196F3"/><path d="M72.917 89.583c-6.25 0-12.292-2.916-16.25-7.708l6.458-5.208c2.292 2.916 6.042 4.791 9.792 4.791 6.875 0 12.5-5.625 12.5-12.5s-5.625-12.5-12.5-12.5c-2.084 0-4.167.625-6.042 1.459L63.333 60 48.542 33.333l7.291-3.958 11.042 19.583c2.083-.625 4.167-1.041 6.25-1.041 11.458 0 20.833 9.375 20.833 20.833 0 11.458-9.583 20.833-21.041 20.833Z" fill="#2196F3"/><path d="M29.167 89.584c-11.459 0-20.834-9.375-20.834-20.834 0-9.583 6.459-17.708 15.625-20.208l2.084 8.125c-5.417 1.458-9.375 6.458-9.375 12.083 0 6.875 5.625 12.5 12.5 12.5s12.5-5.625 12.5-12.5v-4.166h31.25v8.333H49.583C47.708 82.5 39.167 89.584 29.167 89.584Z" fill="#2196F3"/><path d="M29.167 77.084c-4.584 0-8.334-3.75-8.334-8.334 0-4.583 3.75-8.333 8.334-8.333 4.583 0 8.333 3.75 8.333 8.333 0 4.584-3.75 8.334-8.333 8.334Z" fill="#0D6EFD"/><path d="M52.083 39.584c-4.583 0-8.333-3.75-8.333-8.334 0-4.583 3.75-8.333 8.333-8.333 4.584 0 8.334 3.75 8.334 8.333 0 4.584-3.75 8.334-8.334 8.334Z" fill="#2196F3"/><path d="m32.708 70.834-7.083-4.167 12.292-20.208C33.75 42.5 31.25 37.084 31.25 31.25c0-11.458 9.375-20.833 20.833-20.833 11.459 0 20.834 9.375 20.834 20.833 0 1.875-.209 3.542-.625 5.209l-8.125-2.084c.208-1.041.416-2.083.416-3.125 0-6.875-5.625-12.5-12.5-12.5s-12.5 5.625-12.5 12.5c0 4.375 2.292 8.334 6.042 10.625l3.542 2.084-16.459 26.875Z" fill="#0D6EFD"/></svg>
